X:50
T:Rollicking Irishman,aka. RDO.50
T:Father O’Flynn,aka. RDO.50
M:6/8
L:1/8
Q:3/8=120
S:Robert D. Owen MS,Indiana,1826.
R:.Jig
O:Indiana,USA
A:New Harmony
C:Untitled in MS
Z:vmp.Chris Partington
K:D
dAG FGA|Bcd cBA|Bcd efg|fed cBA|!
dAG FGA|cde cBA|Bcd efg|fdd ” cr”d3:|!
|:fdf faf|ece eae|dcd Bcd|cAAA3|!
BGB BdB|cAc cec|Bcd efg|fdd” cr”d3:|

